!!!!SEGMENT: pl-kk--kk-i-474--001-001_studzinski-piotr--quarta-missa-kyrie.krn
!!!cenid: 18xx:1384
!!!COM: Studziński, Piotr
!!!COM-rismID:
!!!CDT: 1825/10/16-1869/04/20
!!!CNT: Polish
!!!OPR: Quarta Missa
!!!OTL: Kyrie
!!!OMV: 001
!!!PDT: 1856
!!!AGN: Sacred; Mass
!!!SMS-siglum: PL-Kk
!!!SMS-shelfmark: Kk.I.474
!!!SMS-shelfwork: 001-001 M
!!!SMS-variant: Alto: str 13
!!!SMS-altvar:
!!!NIFC-rismSourceID: 1001140244
!!!NIFC-islandoraID: pl-kk:14052
!!!URL-pdf-islandora: https://repozytorium.nifc.pl/islandora/object/pl-kk%3A14052/datastream/PDF/view
!!!URL-scan: https://polish.musicsources.pl/pl/lokalizacje/galeria/rekopisy/6081 @EN{Scan on Polish Music Herritage in Open Access Website} @PL{Skany w portalu Dziedzictwo Muzyki Polskiej w otwartym dostępie}
!!!ONB-nifc: UWAGA: części Mszy: 1. Kyrie, 2. Gloria, 3. Credo, 4. Sanctus, 5. Benedictus, 6. Agnus, 7. Dona. Uwaga: Gloria zapisana osobno na ostatnich stronach
!!!AIN: 1 alto 2 empty 1 organ 1 soprn 1 tenor
!!!key:
**kern	**text	**kern	**text	**dynam	**kern	**text	**kern	**text	**kern	**text	**kern	**text
*part6	*part6	*part5	*part5	*part5	*part4	*part4	*part3	*part3	*part2	*part2	*part1	*part1
*staff6	*staff6	*staff5	*staff5	*	*staff4	*staff4	*staff3	*staff3	*staff2	*staff2	*staff1	*staff1
*Iorgan	*	*Iempty	*	*	*Iempty	*	*Itenor	*	*Ialto	*	*Isoprn	*
*I"Organo.	*	*	*	*	*I"Baſso Duo	*	*I"Tenor	*	*I"Alto.	*	*I"Soprano	*
*I'org	*	*	*	*	*I'B	*	*I'T	*	*I'A	*	*I'S	*
*clefF4	*	*clefG2	*	*	*clefF4	*	*clefC4	*	*clefG2	*	*clefG2	*
*k[]	*	*k[]	*	*	*k[]	*	*k[]	*	*k[]	*	*k[]	*
*C:	*	*C:	*	*	*C:	*	*C:	*	*C:	*	*C:	*
*M4/4	*	*M4/4	*	*	*M4/4	*	*M4/4	*	*M4/4	*	*M4/4	*
*met(c)	*	*met(c)	*	*	*met(c)	*	*met(c)	*	*met(c)	*	*met(c)	*
=1	=1	=1	=1	=1	=1	=1	=1	=1	=1	=1	=1	=1
*2\right	*	*2\right	*	*	*2\right	*	*2\right	*	*2\right	*	*2\right	*
*^	*	*^	*	*	*	*	*	*	*	*	*	*
!	!	!	!	!	!	!	!	!	!	!	!LO:TX:a:B:t=andantino.	!	!	!
!	!	!	!LO:SIC:s:v:t:=andantino na różowo	!	!	!	!LO:TX:a:B:t=Andantino	!	!	!	!LO:TX:a:t=4	!	!	!
2c/	2c\	Ky-	2cc/	2cc\	.	p	2c\	Ky-	2c\	Ky-	00r	.	2cc\	Ky-
2B/	2B\	-ri-	2b/	2b\	.	.	2B\	-ri-	2B\	-ri-	.	.	2b\	-ri-
=2	=2	=2	=2	=2	=2	=2	=2	=2	=2	=2	=2	=2	=2	=2
2A/	2A\	-e	2a/	2a\	.	.	2A\	-e	2A\	-e	.	.	2a\	-e
4B/	4B\	.	4b/	4b\	.	.	4B\	.	4B\	.	.	.	4b\	.
4c/	4c\	.	4cc/	4cc\	.	.	4c\	.	4c\	.	.	.	4cc\	.
=3	=3	=3	=3	=3	=3	=3	=3	=3	=3	=3	=3	=3	=3	=3
2d/	2d\	le-	2dd/	2dd\	.	.	2d\	le-	2d\	le-	.	.	2dd\	le-
2e/	2e\	-j-	2ee/	2ee\	.	.	2e\	-j-	2e\	-i-	.	.	2ee\	-j-
*v	*v	*	*	*	*	*	*	*	*	*	*	*	*	*
=4	=4	=4	=4	=4	=4	=4	=4	=4	=4	=4	=4	=4	=4
2.c\	-son	2.cc/	2.cc\	.	.	2.c\	-son	2.c\	-son	.	.	2.cc\	-son
!	!	!	!	!	!LO:DY:b	!	!	!	!	!	!	!	!
4ryy	.	4r	4ryy	.	pp	4r	.	4r	.	.	.	4r	.
*	*	*v	*v	*	*	*	*	*	*	*	*	*	*
=5	=5	=5	=5	=5	=5	=5	=5	=5	=5	=5	=5	=5
*^	*	*	*	*	*	*	*	*	*	*	*	*
2E/	2C\	Ky-	2cc/ 2c/	.	.	2C/	Ky-	2E/	Ky-	2c/	Ky-	2cc\	Ky-
2G\	2C\	-ri-	2b/ 2c/	.	.	2C/	-ri-	2G/	-ri-	2c/	-ri-	2b\	-ri
!	!	!	!	!	!	!	!	!LO:LB:g=original	!	!	!	!LO:LB:g=original	!
=6	=6	=6	=6	=6	=6	=6	=6	=6	=6	=6	=6	=6	=6
*	*	*	*^	*	*	*	*	*	*	*	*	*	*
2F/	2.C\	-e	2a/	2.c/	.	.	2.C/	-e	2F/	-e	2.c/	-e	2a/	-e
4G/	.	.	4b/	.	.	.	.	.	4G/	.	.	.	4b/	.
4A/	4C\	.	4cc/	4c/	.	.	4C/	e-	4A/	.	4c/	e-	4cc/	.
!	!	!	!	!	!	!	!LO:LB:g=original	!	!	!	!	!	!	!
=7	=7	=7	=7	=7	=7	=7	=7	=7	=7	=7	=7	=7	=7	=7
2c/	2G\	le-	2dd/	1f\	.	.	2G\	-le-	2c\	le-	1f/	-lej-	2dd\	le-
2B/	2G\	-j-	2ee/	.	.	.	2G\	-j-	2B\	-j-	.	.	2ee\	-j-
*v	*v	*	*	*	*	*	*	*	*	*	*	*	*	*
*	*	*v	*v	*	*	*	*	*	*	*	*	*	*
!LO:LB:g=original	!	!	!	!	!	!	!	!	!	!	!	!
=8	=8	=8	=8	=8	=8	=8	=8	=8	=8	=8	=8	=8
2.c\ 2.C\	-son	2.cc/ 2.e/	.	.	2.C/	-son	2.c\	-son	2.e/	-son	2.cc\	-son
4r	.	4r	.	.	4r	.	4r	.	4r	.	4r	.
=9	=9	=9	=9	=9	=9	=9	=9	=9	=9	=9	=9	=9
!	!	!	!	!	!	!	!	!	!	!	!LO:TX:b:t=4	!
!	!	!LO:TX:b:i:t=Solo	!	!	!LO:TX:a:t=solo	!	!LO:TX:b:t=4	!	!LO:TX:a:t=4	!	!LO:TX:a:t=4	!
2G\	Ky-	1ryy	.	.	2G\	Ky-	00r	.	00r	.	00r	.
2G\	-ri-	.	.	.	2G\	-ri-	.	.	.	.	.	.
=10	=10	=10	=10	=10	=10	=10	=10	=10	=10	=10	=10	=10
2A\	-e	1ryy	.	.	2A\	-e	.	.	.	.	.	.
4G\	.	.	.	.	4G\	.	.	.	.	.	.	.
4F\	.	.	.	.	4F\	.	.	.	.	.	.	.
=11	=11	=11	=11	=11	=11	=11	=11	=11	=11	=11	=11	=11
2E\	le-	1ryy	.	.	2E\	le-	.	.	.	.	.	.
2G\	-j-	.	.	.	2G\	-j-	.	.	.	.	.	.
=12	=12	=12	=12	=12	=12	=12	=12	=12	=12	=12	=12	=12
2.D\	-son	1ryy	.	.	2.D\	-son	.	.	.	.	.	.
4r	.	.	.	.	4r	.	.	.	.	.	.	.
!	!	!	!	!	!LO:LB:g=original	!	!	!	!	!	!	!
=13	=13	=13	=13	=13	=13	=13	=13	=13	=13	=13	=13	=13
2.B\ 2.D\ 2.GG\	Ky-	2.dd\ 2.g\ 2.d\	.	.	2.D\ 2.GG\	Ky-	2.B\	Ky-	2.g/	Ky-	2.dd\	Ky-
4B\ 4D\ 4GG\	-ri-	4dd\ 4g\ 4d\	.	.	4D\ 4GG\	-ri-	4B\	-ri-	4g/	-ri-	4dd\	-ri-
!	!	!	!	!	!	!	!	!	!LO:LB:g=original	!	!	!
=14	=14	=14	=14	=14	=14	=14	=14	=14	=14	=14	=14	=14
2c\ 2D\ 2AA\	-e	2dd/ 2f#X/	.	.	2D/ 2AA/	-e	2c\	-e	2f#X/	-e	1dd\	-e
2d\ 2G\ 2BB\	.	2dd\ 2g\	.	.	2G/ 2BB/	.	2d\	.	2g/	e-	.	.
!	!	!	!	!	!	!	!LO:LB:g=original	!	!	!	!	!
=15	=15	=15	=15	=15	=15	=15	=15	=15	=15	=15	=15	=15
*^	*	*	*	*	*^	*	*	*	*	*	*	*
4c/	2C\	le-	2ee\ 2g\	.	.	2C/	2C\	le-	4c\	le-	2g/	-le-	2ee\	le-
4G/	.	.	.	.	.	.	.	.	4G\	.	.	.	.	.
4F#X/	2D\	-j-	4dd\ 4a\	.	.	2D\	2ryy	-j-	4F#X/	.	4a/	.	4dd\	.
4A/	.	.	4cc\ 4f#X\	.	.	.	.	.	4A\	j-	4f#X/	-i-	4cc\	-j-
*	*	*	*	*	*	*v	*v	*	*	*	*	*	*	*
!!pagebreak:original
!	!	!	!	!	!	!	!	!	!	!	!	!	!LO:LB:g=original
=16	=16	=16	=16	=16	=16	=16	=16	=16	=16	=16	=16	=16	=16
2G/	2.G\	-son	2.b\ 2.g\	.	.	2G\	-son	2.G\	-son	2.g/	-son	2.b\	-son
4rGG	.	.	.	.	.	4r	.	.	.	.	.	.	.
!	!	!	!LO:TX:a:t=Solo	!	!	!LO:TX:rj:a:t=solo	!	!	!	!	!	!	!
4G\	4ryy	Chris-	4r	.	.	4G\	Chris-	4r	.	4r	.	4r	.
*v	*v	*	*	*	*	*	*	*	*	*	*	*	*
!LO:LB:g=original	!	!	!	!	!	!	!	!	!	!	!	!
=17	=17	=17	=17	=17	=17	=17	=17	=17	=17	=17	=17	=17
!	!	!	!	!	!	!	!	!	!	!	!LO:TX:a:t=1	!
4A/	-te	2r	.	.	4A\	-te	2r	.	2r	.	1r	.
4G/	.	.	.	.	4G\	.	.	.	.	.	.	.
4F/	le-	4r	.	.	4F\	le-	4r	.	4r	.	.	.
!	!	!LO:TX:rj:a:B:t=allo	!	!	!	!	!	!	!	!	!	!
4E/	-j-	4g/ 4c/	Chris	.	4E\	-i-	4c\	Chris-	4g/	Chris-	.	.
=18	=18	=18	=18	=18	=18	=18	=18	=18	=18	=18	=18	=18
*^	*	*^	*	*	*	*	*	*	*	*	*	*
4F\	2c/	-son	4a-X/	4ryy	.	.	4F\	-son	2c\	-te	4a-X/	-te	2r	.
4E-X\	.	e-	4g/	4ryy	.	.	4E-X\	e-	.	.	4g/	.	.	.
4D\	4B/	-le-	4f/	4ryy	.	.	4D\	-le-	4B\	le-	4fn/	le-	4r	.
4C\	4c/	-i-	4ee-X/	4e-X\	Chris	.	4C\	-i-	4c\	-i-	4e-X/	-i-	4ee-X\	Chris-
*v	*v	*	*	*	*	*	*	*	*	*	*	*	*	*
!	!	!	!	!	!	!LO:LB:g=original	!	!	!	!	!	!	!
=19	=19	=19	=19	=19	=19	=19	=19	=19	=19	=19	=19	=19	=19
*	*	*	*	*	*	*^	*	*	*	*	*	*	*
4d\ 4G\ 4BBn\	-son	4gg/	2g\	.	.	4G\	4BBn\	-son	4d\	-son	2g/	-son	4gg\	-te
4Bn\ 4G\ 4BB\	.	4ff/	.	.	.	4G\	4D\	.	4B\	.	.	.	4ff\	.
2B\ 2G\ 2F\	e-	4ee-X/	2g\	.	.	2G/	2F\	e-	2B\	e-	2g/	e-	4ee-X\	.
.	.	4dd/	.	.	.	.	.	.	.	.	.	.	4dd\	.
*	*	*	*	*	*	*v	*v	*	*	*	*	*	*	*
=20	=20	=20	=20	=20	=20	=20	=20	=20	=20	=20	=20	=20	=20
2c\ 2E-X\	-lej-	4ff/	2g\	.	.	2E-X\	-lej-	2c\	-lej-	2g/	-lej-	4ff\	le-
.	.	4ee-X/	.	.	.	.	.	.	.	.	.	4ee-X\	-j-
4d\ 4F\	-son	4dd/	4a-X\	.	.	4F\	-son	4d\	-son	4a-X/	-son	4dd\	-son
4e-X\ 4F#X\	e-	4cc/	4an\	.	.	4F#X\	e-	4e-X\	e-	4an/	e-	4cc\	e-
!	!	!	!	!	!	!	!	!LO:LB:g=original	!	!LO:LB:g=original	!	!	!
=21	=21	=21	=21	=21	=21	=21	=21	=21	=21	=21	=21	=21	=21
*^	*	*	*	*	*	*	*	*	*	*	*	*	*
2G\	1e-X\	-le-	1cc/	2g\	.	.	2G\	-le-	1e-X\	-lej-	2g/	-le-	1cc\	-lej-
2A-X\	.	-i-	.	2f#X\	.	.	2A-X\	-j-	.	.	2f#X/	-i-	.	.
*v	*v	*	*	*	*	*	*	*	*	*	*	*	*	*
*	*	*v	*v	*	*	*	*	*	*	*	*	*	*
=22	=22	=22	=22	=22	=22	=22	=22	=22	=22	=22	=22	=22
2.d\ 2.G\	-son	2.b\ 2.g;\	.	.	2.G;\	-son	2.d;\	-son	2.g;/	-son	2.bn;\	-son
4r	.	4r	.	.	4r	.	4r	.	4r	.	4r	.
!	!	!	!	!	!	!	!	!	!	!	!LO:LB:g=original	!
=23	=23	=23	=23	=23	=23	=23	=23	=23	=23	=23	=23	=23
*	*	*^	*	*	*	*	*	*	*	*	*	*
2.c#X\ 2.G\	Ky-	2.b-X/	2.e\	.	.	2.G\	Ky-	2.c#X\	Ky-	2.e/	Ky-	2.b-X\	Ky-
4c#\ 4G\	-ri-	4b-/	4e\	.	.	4G\	-ri-	4c#\	-ri-	4e/	-ri-	4b-\	-ri-
*	*	*v	*v	*	*	*	*	*	*	*	*	*	*
!LO:LB:g=original	!	!	!	!	!	!	!	!	!	!	!	!
=24	=24	=24	=24	=24	=24	=24	=24	=24	=24	=24	=24	=24
*^	*	*	*	*	*^	*	*	*	*	*	*	*
2F/	2F\	-e	2a/ 2d/	.	.	2F/	2F\	-e	2d\	-e	2d/	-e	2a/	-e
2A\	2D\	.	2f/	.	.	2D\	2ryy	.	2A\	.	2f/	.	2f/	.
*v	*v	*	*	*	*	*v	*v	*	*	*	*	*	*	*
!	!	!	!	!	!LO:LB:g=original	!	!	!	!	!	!	!
=25	=25	=25	=25	=25	=25	=25	=25	=25	=25	=25	=25	=25
2.Bn\ 2.F\	le-	2.a-X/ 2.d/	.	.	2.F\	le-	2.Bn\	le-	2.d/	le-	2.a-X/	le-
4B\ 4F\	-i-	4a-/ 4d/	.	.	4F\	-j-	4B\	-i-	4d/	-i-	4a-/	-i-
=26	=26	=26	=26	=26	=26	=26	=26	=26	=26	=26	=26	=26
*	*	*^	*	*	*	*	*	*	*	*	*	*
2c\ 2E\	-son	2g/	2c/	.	.	2E\	-son	2c\	-son	2c/	-son	2g/	-son
2G\ 2C\	e-	2e/	2e\	.	.	2C\	e-	2G\	e-	2e/	e-	2e/	e-
!!linebreak:original
=27	=27	=27	=27	=27	=27	=27	=27	=27	=27	=27	=27	=27	=27
!	!	!	!	!	!.	!	!	!	!	!	!	!	!
2A\ 2F#X\	-lei-	2e-X/	2c/	.	.	2F#X\	-lej-	2A\	-lej-	2c/	-lej-	2e-X/	-lej-
!	!	!	!	!	!	!	!	!	!	!LO:LB:g=original	!	!	!
4c\ 4A\	-son	4f#X/	4e-\	.	.	4A\	-son	4c\	-son	4e-X/	-son	4f#X/	-son
4e-X\ 4c\	e	4a/	4f#\	.	.	4c\	e-	4e-X\	e-	4f#X/	e-	4a/	e-
*	*	*v	*v	*	*	*	*	*	*	*	*	*	*
!	!	!	!	!	!	!	!LO:LB:g=original	!	!	!	!	!
=28	=28	=28	=28	=28	=28	=28	=28	=28	=28	=28	=28	=28
2.f#X\ 2.e\	le-	1cc/ 1a/	.	.	2.e\	-le-	2.f#X\	-lej-	1a/	-lej-	1cc\	-lej-
4e\ 4F#X\	-j-	.	.	.	4F#X\	-j-	4e-X\	.	.	.	.	.
=29	=29	=29	=29	=29	=29	=29	=29	=29	=29	=29	=29	=29
*	*	*^	*	*	*	*	*	*	*	*	*	*
2d\ 2G\	-son	2b/	2g\	.	.	2G\	-son	2d\	-son	2g/	-son	2b\	-son
2fn\ 2Bn\	Chris-	2dd\	2g\	.	.	2Bn\	Chris-	2fn\	Chris	2g/	Chris-	2dd\	Chri-
!	!	!	!	!	!	!	!	!	!	!	!	!LO:LB:g=original	!
=30	=30	=30	=30	=30	=30	=30	=30	=30	=30	=30	=30	=30	=30
2e-X\ 2c\	-te	2ee-X\	(2g\	.	.	2c\	-te	2e-X\	-te	2g/	-te	2ee-X\	-ste
.	.	(16qqdd/LL	.	.	.	.	.	.	.	.	.	(16qqdd/LL	.
.	.	16qqcc/JJ)	.	.	.	.	.	.	.	.	.	16qqcc/JJ)	.
2d\ 2G\	e-	2bn/	2f\)	.	.	2G\	e-	2d\	e-	2f/	e-	2bn\	e-
*	*	*v	*v	*	*	*	*	*	*	*	*	*	*
!	!	!	!	!	!LO:LB:g=original	!	!	!	!	!	!	!
=31	=31	=31	=31	=31	=31	=31	=31	=31	=31	=31	=31	=31
2c\ 2A-X\	-le-	2cc/ 2e-X/	.	.	2A-X\	-le-	2c\	-le-	2e-X/	-le-	2cc\	-le-
(16qqG/LL	.	.	.	.	(16qqG/LL	.	.	.	.	.	.	.
16qqF/JJ)	.	.	.	.	16qqF/JJ)	.	.	.	.	.	.	.
2G\ 2En\	-i-	2b-X/ 2d-X/	.	.	2En\	-i-	2G\	-i-	2d-X/	-i-	2b-X\	-i-
!LO:LB:g=original	!	!	!	!	!	!	!	!	!	!	!	!
=32	=32	=32	=32	=32	=32	=32	=32	=32	=32	=32	=32	=32
*^	*	*	*	*	*	*	*	*	*	*	*	*
2F/	2F\	-son	2a-X/ 2c/	.	.	2F\	-son	2F/	-son	2c/	-son	2a-X/	-son
2c/	2G\	e-	2g/ 2e-X/	.	.	2G\	e-	2c\	e-	2e-X/	e-	2g/	e-
*v	*v	*	*	*	*	*	*	*	*	*	*	*	*
=33	=33	=33	=33	=33	=33	=33	=33	=33	=33	=33	=33	=33
1c\ 1A-X\	-le-	1g/ 1e-X/	.	.	1A-X\	-le-	1c\	-le-	1e-X/	-lej-	1g/	-le-
=34	=34	=34	=34	=34	=34	=34	=34	=34	=34	=34	=34	=34
!	!	!	!	!	!	!	!	!	!LO:TX:t=P:problem=brakujący takt	!	!	!
1c\ 1A-X\	-i-	1f#X/ 1d/	.	.	1A-X\	-i-	1c\	-i-	1ryy	.	1f#X/	-i-
!	!	!	!	!	!	!	!LO:LB:g=original	!	!	!	!	!
=35	=35	=35	=35	=35	=35	=35	=35	=35	=35	=35	=35	=35
[>1Bn\ [<1G\	-son	[1g/ [1d/	.	.	2G\	-son	[1Bn\	-son	[1d/	-i-	[1g/	-son
.	.	.	.	.	(4D\	.	.	.	.	.	.	.
.	.	.	.	.	4BB\	.	.	.	.	.	.	.
=36	=36	=36	=36	=36	=36	=36	=36	=36	=36	=36	=36	=36
2.B\] 2.G\] 2.GG\	.	2.g/] 2.d/]	.	.	2.G\ 2.GG\)	.	2.B\]	.	2.d/]	-son.	2.g/]	.
4G\	Chris-	4r	.	.	4G\	Chris-	4r	.	4r	.	4r	.
!	!	!	!	!	!	!	!	!	!LO:LB:g=original	!	!	!
=37	=37	=37	=37	=37	=37	=37	=37	=37	=37	=37	=37	=37
*^	*	*^	*	*	*	*	*	*	*	*	*	*
!	!	!	!	!	!	!	!	!	!	!	!	!	!LO:TX:a:t=1	!
(4A-X\	2.ryy	-te	2r	4ryy	.	.	4A-X\	-te	2r	.	2r	.	1r	.
4G\)	.	.	.	4ryy	.	.	4G\	.	.	.	.	.	.	.
4F\	.	le-	4r	4ryy	.	.	4F\	le-	4r	.	4r	.	.	.
4c/	4E-X\	-i-	4g/	4g\	Chris-	.	4E-X\	-i-	4c\	Chris-	4g/	Chris-	.	.
!!pagebreak:original
!	!	!	!	!	!	!	!LO:LB:g=original	!	!	!	!	!	!LO:LB:g=original	!
=38	=38	=38	=38	=38	=38	=38	=38	=38	=38	=38	=38	=38	=38	=38
4F\	2c/	-son	2r	4a-X\	-te	.	4F\	-son	2c\	-te	4a-X/	-te	2r	.
4E-X\	.	e-	.	4g\	.	.	4E-X\	e-	.	.	4g/	e-	.	.
4D\	4Bn/	-le-	4r	4f\	.	.	4D\	-le-	4B\	-le-	4f/	-le-	4r	.
4C\	4c/	-i-	4ee-X/	4e-X\	Chris-	.	4C\	-i-	4c\	-i-	4e-X/	-i-	4ee-X\	Chris-
*v	*v	*	*	*	*	*	*	*	*	*	*	*	*	*
=39	=39	=39	=39	=39	=39	=39	=39	=39	=39	=39	=39	=39	=39
4d\ 4G\ 4BBn\	-son	4gg/	2g\	-te	.	4G\ 4BBn\	-son	4d\	-son	2g/	-son	4gg\	-te
4B\ 4G\ 4D\	Chris-	4ff/	.	.	.	4G\ 4D\	Chris-	4Bn\	Chri-	.	.	4ff\	.
2B\ 2F\	-te	4ee-X/	2g\	.	.	2F\	-te	2B\	-ste	2g/	Chri-	4ee-X\	.
.	.	4dd/	.	.	.	.	.	.	.	.	.	4dd\	.
!LO:LB:g=original	!	!	!	!	!	!	!	!	!	!	!	!	!
=40	=40	=40	=40	=40	=40	=40	=40	=40	=40	=40	=40	=40	=40
2c\ 2E-X\	lei-	4ff/	2g\	.	.	2E-X\	lei-	2c\	lei-	2g/	-ste	4ff\	le-
.	.	4ee-X/	.	.	.	.	.	.	.	.	.	4ee-X\	-i-
4d\ 4F\	-son	4dd/	4a-X\	.	.	4F\	-son	4d\	-son	4a-X/	e-	4dd\	-son
4e-X\ 4D#X\	e-	4cc/	4an\	.	.	4F#X\	e-	4e-X\	e-	4an/	.	4cc\	e-
!	!	!	!	!	!	!	!	!LO:LB:g=original	!	!	!	!	!
=41	=41	=41	=41	=41	=41	=41	=41	=41	=41	=41	=41	=41	=41
2e\ 2G\	-le-	1cc/	2g\	.	.	2G\	-le-	1e-X\	-lej-	2g/	-le-	1cc\	-lej-
2A-X\	-i-	.	2f#X\	.	.	2A-X\	-i-	.	.	2f#X/	-i-	.	.
=42	=42	=42	=42	=42	=42	=42	=42	=42	=42	=42	=42	=42	=42
2d\ 2A-X\	-son	2bn/	2f\	.	.	2A-X\	-son	2d\	-son	2fn/	-son	2.bn\	-son
4G\	Ky-	2ryy	4g\	.	.	4G\	Ky-	4d\	Ky-	4g/	Ky-	.	.
4F\	-ri-	.	4a-X\	.	.	4F\	-ri-	4d\	-ri-	4a-X/	-ri-	4r	.
!	!	!	!	!	!	!LO:LB:g=original	!	!	!	!	!	!	!
=43	=43	=43	=43	=43	=43	=43	=43	=43	=43	=43	=43	=43	=43
2c\ 2En\	-e	2cc/	1g\	.	.	2E-X\	-e	1c\	-e	1g/	-e	2cc\	Chris-
2En\	.	2b-X/	.	.	.	2En\	.	.	.	.	.	2b-X\	-te
!	!	!	!	!	!	!	!	!	!	!LO:LB:g=original	!	!LO:LB:g=original	!
=44	=44	=44	=44	=44	=44	=44	=44	=44	=44	=44	=44	=44	=44
2c\ 2F\	lei-	2a-X/	2f\	.	.	2F\	lej-	2c\	lej-	2f/	lej-	2a-X/	lej-
4c\ 4G\	-son	4g/	4e-X/	.	.	4G\	-son	4c\	-son	4e-X/	-son	4g/	-son
4c\ 4A-X\	e-	4f#X/	4e-\	.	.	4A-X\	e-	4c\	e-	4e-/	e-	4f#X/	e-
*	*	*v	*v	*	*	*	*	*	*	*	*	*	*
=45	=45	=45	=45	=45	=45	=45	=45	=45	=45	=45	=45	=45
*^	*	*	*	*	*	*	*	*	*	*	*	*
2c/	2G\	-le-	[2g/ 2e/	.	.	2G\	-le-	2c\	-le-	2e-X/	-le-	1g/	-lej-
2Bn\	2G\	-i-	2g/] 2d/	.	.	2G\	-i	2Bn\	-i-	2d/	-i-	.	.
=46	=46	=46	=46	=46	=46	=46	=46	=46	=46	=46	=46	=46	=46
2.c/	2.C\	-son	2.g/ 2.en/	.	.	2.C/	son	2.c\	-son	2.en/	-son	2.g/	-son
4c/	4rF	Chri-	4r	.	.	4r	.	4c\	Chris-	4r	.	4r	.
!LO:LB:g=original	!	!	!	!	!	!	!	!LO:LB:g=original	!	!	!	!	!
=47	=47	=47	=47	=47	=47	=47	=47	=47	=47	=47	=47	=47	=47
4d-X/	2.C\	-ste	2.b-X/ 2.g/	.	.	2.C/	Ky-	4d-X\	-ste	2.g/	Ky-	2.b-X\	Ky-
4B-X/	.	.	.	.	.	.	.	4B-X\	.	.	.	.	.
4G/	.	le-	.	.	.	.	.	4G\	le-	.	.	.	.
4E/	4C\	-i-	4b-/ 4g/	.	.	4C/	-ri-	4E/	-i-	4g/	-ri-	4b-\	-ri-
!!linebreak:original
=48	=48	=48	=48	=48	=48	=48	=48	=48	=48	=48	=48	=48	=48
4F/	2C\	-son	2.a-X/ 2.f/	.	.	2C/	-e	4F/	-son	2.f/	-e	2.a-X/	-e
4A-X/	.	Chris-	.	.	.	.	.	4A-X/	Chris-	.	.	.	.
4c/	2C\	-te	.	.	.	2C/	e-	4c\	-te	.	.	.	.
4c/	.	e-	4a-/ 4f/	.	.	.	.	4c\	e-	4f/	e-	4a-/	e-
*v	*v	*	*	*	*	*	*	*	*	*	*	*	*
!	!	!	!	!	!	!LO:LB:g=original	!	!	!	!	!	!
=49	=49	=49	=49	=49	=49	=49	=49	=49	=49	=49	=49	=49
*	*	*^	*	*	*	*	*	*	*	*	*	*
!	!	!LO:TX:t=P:problem=diminuendo i crescendo jednocześnie	!	!	!	!	!	!	!	!	!	!	!
2.Bn\ 2.C\	-le-	2.dd/	2.a\ 2.f\	.	.	2.C/	-le-	2.Bn\	-le-	2.f/	-le-	2.dd\	-le-
4B\ 4C\	-i-	4ee-X/	4ee-\ 4g\	.	.	4C/	-j-	4B\	-j-	4g/	-i-	4ee-X\	-j-
=50	=50	=50	=50	=50	=50	=50	=50	=50	=50	=50	=50	=50	=50
2c\ 2C\	-son	2cc/	2e-X\	.	.	2C/	-son	2c\	-son	2.e-X/	-son	2cc\	-son
2r	.	4r	4ryy	.	.	2r	.	2r	.	.	.	4r	.
.	.	4cc/	4ryy	Chris-	.	.	.	.	.	4r	.	4cc\	Chris-
*	*	*v	*v	*	*	*	*	*	*	*	*	*	*
!	!	!	!	!	!	!	!	!	!LO:LB:g=original	!	!LO:LB:g=original	!
=51	=51	=51	=51	=51	=51	=51	=51	=51	=51	=51	=51	=51
!	!	!	!	!	!	!	!	!	!LO:TX:a:t=2	!	!	!
2G\ 2En\	Chris-	4dd-X/	-te	.	2En\	Chris-	2G/	Chris-	0r	.	4dd-X\	-ste
.	.	4b-X/	e-	.	.	.	.	.	.	.	4b-X\	e-
4B\ 4G\	-te	4g/	-le-	.	4G\	-te	4B-X\	-te	.	.	4g/	-le-
4d-X\ 4B\	e-	4e/	-i-	.	4B\	e-	4d-X\	e-	.	.	4e/	-i-
=52	=52	=52	=52	=52	=52	=52	=52	=52	=52	=52	=52	=52
2c\ 2A-X\	-lej-	4f/	-son	.	2A-X\	-lei-	2c\	-lej-	.	.	4f/	-son
.	.	4a-X/	Chris-	.	.	.	.	.	.	.	4a-X/	Chri-
4A-\ 4F\	-son	4cc/	-te	.	4F\	-son	4A-X\	-son	.	.	4cc\	-ste
4A-\ 4F\	e-	4ff/	e	.	4F\	e-	4A-\	e-	.	.	4gg\	e
!	!	!	!	!	!	!	!LO:LB:g=original	!	!	!	!	!
=53	=53	=53	=53	=53	=53	=53	=53	=53	=53	=53	=53	=53
*^	*	*	*	*	*^	*	*	*	*	*	*	*
!	!	!	!	!	!	!	!	!	!	!	!	!	!LO:TX:a:t=1	!
2.A-X\ 2.F\	2.C\	-le-	2.Bn/	.	.	2.F/	2.C\	-lej-	2.A-X\	-lej-	2.Bn/	le-	1r	.
4A-/	4F\ 4C\	-i-	4B/	.	.	4F\	4C\	-i-	4A-\	-i-	4B/	-i-	.	.
*v	*v	*	*	*	*	*v	*v	*	*	*	*	*	*	*
!LO:LB:g=original	!	!	!	!	!	!	!	!	!	!	!	!
=54	=54	=54	=54	=54	=54	=54	=54	=54	=54	=54	=54	=54
*	*	*^	*	*	*	*	*	*	*	*	*	*
!	!	!	!LO:TX:a:t=P:problem=text nad pięciolinią	!	!	!	!	!	!	!	!	!	!
2G\ 2E\ 2C\	-son	2c/	2ff\	Ky-	.	2En\ 2C\	-son	2G\	-son	2c/	-son	2r	.
4E\ 4C\	Ky-	4cc/ 4c/	4cc\	.	.	4C/	Ky-	4E/	Ky-	4c/	Ky-	4cc\	Ky-
4G\ 4C\	-ri-	4b/ 4c/	4b\	-ri-	.	4C/	-ri-	4G/	-ri-	4c/	-ri-	4bn\	-ri-
!	!	!	!	!	!	!LO:LB:g=original	!	!	!	!	!	!	!
=55	=55	=55	=55	=55	=55	=55	=55	=55	=55	=55	=55	=55	=55
*^	*	*	*	*	*	*	*	*	*	*	*	*	*
2F/	2.C\	-e	2a/	2.c/	-e	.	2.C/	-e	2F/	-e	2.c/	-e	2a/	-e
4G/	.	.	4b/	.	e-	.	.	.	4G/	.	.	.	4b/	.
!	!	!	!	!LO:N:xstem	!	!	!	!	!	!	!	!	!	!
4A/	4C\	e-	4cc/	4c/	.	.	4C/	e-	4An/	e-	4c/	e-	4cc/	e-
*v	*v	*	*	*	*	*	*	*	*	*	*	*	*	*
*	*	*v	*v	*	*	*	*	*	*	*	*	*	*
=56	=56	=56	=56	=56	=56	=56	=56	=56	=56	=56	=56	=56
2c\ 2G\	-le-	2dd\ 2f\	-le-	.	2G\	-le-	2c\	-le-	2f/	-le-	2dd\	-le-
2B\ 2G\	-i-	2ee\ 2f\	-i-	.	2G\	-i-	2Bn\	-i-	2f/	-i-	2ee\	-i-
!	!	!	!	!	!	!	!	!	!	!	!LO:LB:g=original	!
=57	=57	=57	=57	=57	=57	=57	=57	=57	=57	=57	=57	=57
2.c\ 2.C\	-son	2.cc/ 2.e/	-son	.	2.C/	-son	2.c\	-son	2.en/	-son	2.cc\	-son
4r	.	4r	.	.	4r	.	4r	.	4r	.	4r	.
!	!	!	!	!	!	!	!	!	!LO:LB:g=original	!	!	!
=58	=58	=58	=58	=58	=58	=58	=58	=58	=58	=58	=58	=58
*^	*	*	*	*	*	*	*	*	*	*	*	*
!	!	!	!	!	!	!	!	!	!	!	!	!LO:TX:a:t=2	!
2c/	2E\ 2C\	Chri-	1ryy	.	.	2E\ 2C\	Chris-	(2c\	Chris-	2c/	Chri-	0r	.
2B/	2G\ 2C\	.	.	.	.	2G\ 2BB\	.	2B\)	.	2B/	.	.	.
!	!	!	!	!	!	!	!	!LO:LB:g=original	!	!	!	!	!
=59	=59	=59	=59	=59	=59	=59	=59	=59	=59	=59	=59	=59	=59
2A/ 2F/	2C\	-ste	1ryy	.	.	2F\ 2C\	-te	2A/	-ste	2A/	-ste	.	.
4B/	4G\ 4C\	.	.	.	.	4G\ 4C\	.	4B\	.	4B/	.	.	.
4c/	4A\ 4C\	.	.	.	.	4A\ 4C\	.	4c\	.	4c/	.	.	.
!!pagebreak:original
=60	=60	=60	=60	=60	=60	=60	=60	=60	=60	=60	=60	=60	=60
*	*	*	*^	*	*	*^	*	*	*	*	*	*	*
!	!	!	!	!LO:TX:a:t=P:problem=text nad pięciolinią	!	!	!	!	!	!	!	!	!	!	!
2c/	2F\ 2GG\	.	2g/	2d\	Chri-	.	2F/	1GG\	lej-	2d\	le-	2d/	le-	1g/	Chris-
2B/	2G\ 2GG\	.	2ryy	2e\	.	.	2G/	.	.	2e\	-j-	2e/	-i-	.	.
*	*	*	*	*	*	*	*v	*v	*	*	*	*	*	*	*
!	!	!	!	!	!	!	!LO:LB:g=original	!	!	!	!	!	!	!
=61	=61	=61	=61	=61	=61	=61	=61	=61	=61	=61	=61	=61	=61	=61
2.c/	2.E\ 2.C\	.	2.g/	2.c\	-ste	.	2.E\ 2.C\	-son	2.c\	-son	2.c/	-son	2.g/	-te
4r	4ryy	.	4r	4ryy	.	.	4r	.	4r	.	4r	.	4r	.
*v	*v	*	*	*	*	*	*	*	*	*	*	*	*	*
*	*	*v	*v	*	*	*	*	*	*	*	*	*	*
!LO:LB:g=original	!	!	!	!	!	!	!	!	!	!	!	!
=62	=62	=62	=62	=62	=62	=62	=62	=62	=62	=62	=62	=62
2.G\ 2.C\	Ky-	2.e/ 2.c/	.	.	2.C\	Ky-	2.G/	Ky-	2.c/	Ky-	2.e/	Ky-
4G\ 4C\	-ri-	4e/ 4c/	.	.	4C\	-ri-	4G/	-ri-	4c/	-ri-	4e/	-ri-
=63	=63	=63	=63	=63	=63	=63	=63	=63	=63	=63	=63	=63
[1G\ [1E\ 1C\	-e	[1c/	.	.	[>1C/	-e	1G/	-e	[1c/	-e	[1c/	-e
=64	=64	=64	=64	=64	=64	=64	=64	=64	=64	=64	=64	=64
4G\] 4E\] 4C\	.	4c/]	.	.	4C\]	.	4G/	.	4c/]	.	4c/]	.
4r	.	4r	.	.	4r	.	4r	.	4r	.	4r	.
2r	.	2r	.	.	2r	.	2r	.	2r	.	2r	.
!	!	!	!	!	!	!	!	!	!LO:LB:g=original	!	!	!
=65	=65	=65	=65	=65	=65	=65	=65	=65	=65	=65	=65	=65
!LO:TX:a:t=1	!	!	!	!	!LO:TX:a:t=1	!	!LO:SIC:s=:v:brakujący takt pauzy	!	!LO:TX:a:t=1	!	!LO:TX:a:t=1	!
1r	.	1r	.	.	1r	.	1ryy	.	1r	.	1r	.
==	==	==	==	==	==	==	==	==	==	==	==	==
*-	*-	*-	*-	*-	*-	*-	*-	*-	*-	*-	*-	*-
!!!system-decoration: [(s1,s2,s3,s4)]{(s5,s6)}
!!!RDF**kern: > = above
!!!RDF**kern: < = below
!!!EED: Leszek Kubiak
!!!EEV: 2021-01-12
!!!ENC: Tomasz Grochalski
!!!END: 2021-01-08
